X:223
T: Anacreon
N: O'Farrell's Pocket Companion v.3 (Sky ed. p.110)
% Melody attributed to Carolan; used by Francis Scott Key
% for "The Star-Spangled Banner"
M: 6/4
L: 1/4
Q: 180
K: D
D|DFA d2 f/e/|dFG A2A|fed c>Bc|d2 A/G/ F<D F/E/|
DFA dd f/e/| dFG A2 a/g/| fed c2 B/c/|d<d AF D<d|
fga a2 g/f/|eef g2 f/e/| fed c>B c|dFG A2A|
ddd BBB| e/f/g/f/e/d/ c2A| d>e f/g/ afd|f>ge d2 A|
ddd BBB| e/f/g/f/e/d/ c2A| d/c/d/e/f/g/ a g/f/e/d/|
f>g e d3 ||
